build/img/icons/phone-icon.svg

<svg width="44" height="45" viewBox="0 0 44 45" fill="none" xmlns="http://www.w3.org/2000/svg">
<path d="M28.6968 33.9651C31.1138 33.9651 32.7574 33.4001 34.249 32.078C34.3457 31.9876 34.4424 31.8859 34.5391 31.7955C35.3539 31.0497 35.7545 30.27 35.7545 29.5467C35.7545 28.6992 35.202 27.9308 33.9728 27.2415L29.857 24.891C28.5587 24.1565 27.0533 24.1 25.8931 25.0492L24.8711 25.8855C24.512 26.1793 24.1667 26.2019 23.7524 25.9646C23.0066 25.5578 21.5978 24.5407 20.631 23.7497C19.6504 22.9474 18.656 22.0434 18.1173 21.3541C17.8273 21.0038 17.8549 20.7326 18.214 20.4388L19.236 19.6025C20.3962 18.6533 20.3271 17.4216 19.4156 16.3594L16.4876 12.9354C15.6727 11.9636 14.6921 11.5116 13.6562 11.5003C12.7723 11.489 11.8331 11.8167 10.9216 12.4721C10.8111 12.5512 10.7006 12.6303 10.5901 12.7094C8.94657 13.9411 8.24219 15.2633 8.24219 17.3199C8.24219 20.6535 10.6039 24.5859 15.2031 28.3263C19.7747 32.0441 24.5258 33.9651 28.6968 33.9651ZM28.6968 32.078C25.1749 32.1232 20.7967 30.0778 16.9572 26.959C13.09 23.8401 10.5211 20.1224 10.5763 17.2408C10.6039 16.0317 11.1288 14.9695 12.1646 14.2236C12.2751 14.1558 12.358 14.0993 12.4685 14.0315C12.8552 13.7603 13.2695 13.6134 13.6562 13.6134C14.0568 13.6134 14.4159 13.749 14.6921 14.088L17.2748 17.2634C17.6063 17.6476 17.6201 18.0883 17.1367 18.4725L16.0318 19.3652C14.9821 20.2015 15.0788 21.1846 15.7418 21.953C16.4876 22.8005 17.8825 24.1 19.0565 25.0492C20.3133 26.0663 22.0259 27.3206 23.0204 27.9082C23.9595 28.4506 25.1611 28.5297 26.1832 27.6709L27.2743 26.7669C27.73 26.3714 28.2687 26.3827 28.7521 26.6426L32.564 28.7218C32.9922 28.9478 33.1441 29.2303 33.1441 29.558C33.1441 29.8744 32.9646 30.2135 32.6331 30.5412C32.5502 30.6203 32.4812 30.6881 32.3983 30.7785C31.4867 31.6373 30.1885 32.0667 28.6968 32.078Z" fill="#594C42"/>
</svg>

<svg width="44" height="45" fill="none" xmlns="http://www.w3.org/2000/svg"><path d="M28.697 33.965c2.417 0 4.06-.565 5.552-1.887.097-.09.193-.192.29-.283.815-.745 1.215-1.525 1.215-2.248 0-.848-.552-1.616-1.781-2.306l-4.116-2.35c-1.298-.734-2.804-.791-3.964.158l-1.022.837c-.359.293-.704.316-1.119.079-.745-.407-2.154-1.424-3.121-2.215-.98-.803-1.975-1.707-2.514-2.396-.29-.35-.262-.621.097-.915l1.022-.837c1.16-.949 1.091-2.18.18-3.243l-2.928-3.424c-.815-.971-1.796-1.423-2.832-1.435-.884-.011-1.823.317-2.734.972-.11.08-.221.158-.332.237-1.643 1.232-2.348 2.554-2.348 4.61 0 3.335 2.362 7.267 6.961 11.007 4.572 3.718 9.323 5.64 13.494 5.64Zm0-1.887c-3.522.045-7.9-2-11.74-5.119-3.867-3.119-6.436-6.837-6.38-9.718.027-1.21.552-2.271 1.588-3.017.11-.068.193-.125.304-.193.386-.27.8-.418 1.187-.418.4 0 .76.136 1.036.475l2.583 3.175c.331.385.345.825-.138 1.21l-1.105.892c-1.05.837-.953 1.82-.29 2.588.746.848 2.14 2.147 3.314 3.096 1.257 1.017 2.97 2.272 3.964 2.86.94.542 2.141.62 3.163-.238l1.091-.904c.456-.396.995-.384 1.478-.124l3.812 2.079c.428.226.58.508.58.836 0 .316-.18.655-.51.983a4.43 4.43 0 0 0-.236.238c-.911.858-2.21 1.288-3.701 1.299Z" fill="#594C42"/></svg>
